X: 462	% 131
T: Sweet Bunch Of Daisies
S: Viola Ruth "Pioneer Western Folk Tunes" 1948 p.46 #2
R: waltz
Z: 2019 John Chambers <jc:trillian.mit.edu>
M: 3/4
L: 1/4
K: G
V: 1 name="131"
[|\
B3 | (c2M^c) | d{g}b2- | (b3 | a3) | (g2e) | d3- | d2c |\
B3 | (c2M^c) | (d{g}b2-) | b3 | ({b}a2Ma) | (gfe) | a3- | a3 |
B3 | (c2M^c) (| d{g}b2-) | b3 | (a2Ma) | (g2Me) | d3- | d3 |\
e3 | (d'2c') | ("^ gliss"b3 | g3) | a3 | (e2f) | g3- | g3 |]
[|\
d3 | ("^ gliss"b2f) | a3 | g3 | (B2d) | (f2e) | d3- | d3 |\
B3 | (c2M^c) | (d{g}b2-) | b3 | (a2Ma) | (gfe) | a3- | a3 |
d3 | (b2f) | a3 | g3 | (B2d) | (f2e) | d3- | d3 |\
e3 | (d'2c') | ("^ gliss"b3 | g3) | a3 | (e2f) | g3- | g3 |]
